!!!!SEGMENT: pl-cz--iii-583--003_rygall-ignacy--huc-ad-festum-huc-ad-festum-ipsam-cole.krn
!!!cenid: 17xx:1109
!!!COM: Rygall, Ignacy
!!!COM-rismid: pe30110281
!!!CDT: <1750->1799
!!!CNT:
!!!OPR: Huc ad festum
!!!OTL: Huc ad festum - Ipsam cole
!!!OMV: 003
!!!PDT: 1776
!!!AGN:
!!!SMS-siglum: PL-CZ
!!!SMS-shelfmark: III-583
!!!SMS-shelfwork: 001-003 M
!!!SMS-variant:
!!!SMS-altvar:
!!!NIFC-rismid: 300001125
!!!URL-scan: http://repozytorium.nifc.pl/skany/pl-cz-nut--iii-583
!!!ONB-nifc: UWAGA: części Huc ad festum: Huc ad festum/Omni die dic Mariae, Et amoris sacris flammas/Con templare, Huc ad festum/Ipsam cole, Et amoris sactis flammas/Hac persona. Uwaga: uwzględnić obie partie wokalne z różnymi tekstami – Soprano Solo i Canto Solo
!!!AIN: 1 cbass 2 soprn 1 viola 2 violn
!!!key: B-
**kern	**kern	**dynam	**kern	**kern	**dynam	**kern	**text	**kern	**text
*part6	*part5	*part5	*part4	*part3	*part3	*part2	*part2	*part1	*part1
*staff6	*staff5	*	*staff4	*staff3	*	*staff2	*staff2	*staff1	*staff1
*I"Baſso	*I"Viola	*	*I"Violino Secondo	*I"Violino Primo	*	*I"Canto Solo::	*	*I"Soprano Solo	*
*I'cb	*I'vla	*	*I'vl 2	*I'vl 1	*	*I'C	*	*I'S	*
*Icbass	*Iviola	*	*Ivioln	*Ivioln	*	*Isoprn	*	*Isoprn	*
*ICstr	*ICstr	*	*ICstr	*ICstr	*	*ICvox	*	*ICvox	*
*clefF4	*clefC3	*	*clefG2	*clefG2	*	*clefC1	*	*clefC1	*
*k[b-e-]	*k[b-e-]	*	*k[b-e-]	*k[b-e-]	*	*k[e-b-]	*	*k[b-e-]	*
*B-:	*B-:	*	*B-:	*B-:	*	*B-:	*	*B-:	*
*M3/4	*M3/4	*	*M3/4	*M3/4	*	*M3/4	*	*M3/4	*
=1	=1	=1	=1	=1	=1	=1	=1	=1	=1
*tremolo	*tremolo	*	*tremolo	*	*	*	*	*	*
*2\right	*2\right	*	*2\right	*2\right	*	*2\right	*	*2\right	*
!!LO:TX:t=P:problem:all\right:global
!	!	!	!	!LO:TX:b:B:t=Tempo di prima	!	!LO:TX:t=P:znaki:problem=ee- zamiast e-	!	!LO:TX:t=P:znaki:problem=ee- zamiast e-	!
!LO:TX:b:B:t=Tempo di prima	!LO:TX:b:B:t=Tempo di prima	!	!LO:TX:a:B:t=Tempo di prima	!LO:TX:a:B:t=andante	!	!	!	!	!
8F\L	8c\L	.	8A/L	4cc\	.	(4cc\	Ip-	4cc\	huc
8F\	8c\	.	8A/	.	.	.	.	.	.
.	.	.	.	8qqb-/	.	8qqb-/	.	8qqb-/	.
8F\	8c\	.	8A/	4a\	.	4a\)	.	4a\	.
8F\	8c\	.	8A/	.	.	.	.	.	.
!	!	!	!	!	!	!	!	!LO:TX:t=P:\right:problem	!
.	.	.	.	8qqg/	.	8qqg/	.	8qqg/	.
8F\	8c\	.	8A/	4f\	.	4f\	-sam	4f\	ad
8F\J	8c\J	.	8A/J	.	.	.	.	.	.
=2	=2	=2	=2	=2	=2	=2	=2	=2	=2
8G\L	8c\L	.	8B-/L	4f/	.	4f/	co-	4f/	fes-
8G\	8c\	.	8B-/	.	.	.	.	.	.
!	!	!	!	!LO:SIC:v:s=4en/	!	!	!	!	!
8G\	8c\	.	8B-/	4e-/	.	4en/	-le	4en/	-tum
8G\J	8c\	.	8B-/J	.	.	.	.	.	.
*Xtremolo	*	*	*Xtremolo	*	*	*	*	*	*
8F\L	8c\	.	8A/L	8r	.	8r	.	8r	.
8F\J	8c\J	.	8A/J	8f/	.	8f/	ut	8f/	Sanc-
!	!	!	!LO:LB:g=original	!	!	!LO:LB:g=original	!	!	!
=3	=3	=3	=3	=3	=3	=3	=3	=3	=3
*tremolo	*	*	*tremolo	*	*	*	*	*	*
8En\L	8c\L	.	8G/L	8g/L	.	(8g\L	ut	8g\L	.
8E\	8c\	.	8G/	8a/J	.	8a\J	.	8a\J	.
8E\	8c\	.	8G/	8b-/L	.	8.b-\L	.	8.b-\L	.
8E\	8c\	.	8G/	16a/L	.	.	.	.	.
.	.	.	.	16b-/JJ	.	32a\LL	.	32a\LL	.
.	.	.	.	.	.	32b-\JJJ)	.	32b-\JJJ	.
8E\	8c\	.	8G/	8cc/L	.	(8cc\L	de	8cc\L	-ti
!	!	!	!	!	!	!	!	!LO:TX:t=P::problem=innym atramentem dopisane&colon; Mathaei	!
8E\J	8c\J	.	8G/J	8b-/J	.	8b-\J)	.	8b-\J	Jo-
!	!	!	!	!LO:LB:g=original	!	!	!	!	!
=4	=4	=4	=4	=4	=4	=4	=4	=4	=4
.	.	.	.	8qqcc/	.	.	.	.	.
8F\L	8c\L	.	8A/L	4b-\	.	4b-\	mo-	4b-\	-an-
8F\	8c\	.	8A/	.	.	.	.	.	.
8F\	8c\	.	8A/	4a\	.	4a\	-le	4a\	-nis
8F\J	8c\J	.	8A/J	.	.	.	.	.	.
*Xtremolo	*Xtremolo	*	*Xtremolo	*	*	*	*	*	*
8D\L	8f\L	.	8f/L	8r	.	8r	.	8r	.
8D\J	8f\J	.	8f/J	8b-\	.	8b-\	cri-	8b-\	Sanc-
!LO:LB:g=original	!	!	!	!	!	!	!	!	!
=5	=5	=5	=5	=5	=5	=5	=5	=5	=5
8E-\L	8e-\L	.	8g/L	8cc\L	.	(8cc\L	.	8cc\L	.
8E-\	8e-\	.	8g/J	8dd\J	.	8dd\J)	.	8dd\J	.
*	*	*	*tremolo	*	*	*	*	*	*
8F\	8f\	.	8a\L	8.ee-\L	.	(8.ee-\L	-mi-	8.ee-\L	.
8F\	8f\	.	8a\	.	.	.	.	.	.
.	.	.	.	32dd\LL	.	32dd\LL	.	32dd\LL	.
.	.	.	.	32ee-\JJJ	.	32ee-\JJJ)	.	32ee-\JJJ	.
8F\	8f\	.	8a\	8ff\L	.	8ff\	-num	8ff\	-ti
!	!	!	!	!	!	!	!	!LO:TX:t=P::problem=innym atramentem dopisane&colon; Mathaei	!
8F\J	8f\J	.	8a\J	8ee-\J	.	8ee-\	de	8ee-\	Joan-
*	*	*	*Xtremolo	*	*	*	*	*	*
!	!	!	!	!	!	!	!	!LO:LB:g=original	!
=6	=6	=6	=6	=6	=6	=6	=6	=6	=6
.	.	.	.	8qqff/	.	.	.	.	.
4F\	4f\	.	4a\	4ee-\	.	4ee-\	mo-	4ee-\	-an-
4G\	4g\	.	4b-\	4dd\	.	4dd\	-le	4dd\	-nis
8D\L	8d\L	.	4r	8ff\L	.	8ff\	ut	8ff\	ju-
!	!	!	!	!	!	!	!	!LO:TX:t=P:\right:problem	!
8D\J	8d\J	.	.	8dd\J	.	8dd\	de	8dd\	-bi-
=7	=7	=7	=7	=7	=7	=7	=7	=7	=7
!	!LO:TX:t=P:/right:problem	!	!	!	!	!	!	!	!
4E-\	4e-\	.	8g/	8dd\L	.	(8dd\L	mo-	(8dd\L	-lan-
.	.	.	4g/	8cc\J	.	8cc\J)	.	8cc\J)	.
!	!LO:TX:t=P:/right:problem	!	!	!	!	!	!	!	!
4E-\	4e-\	.	.	4cc\	.	4cc\	-le	(4cc\	-tés
.	.	.	4g/	.	.	.	.	.	.
!	!LO:TX:t=P:/right:problem	!	!	!	!	!	!	!	!
4F\	4f\	.	.	4dd\	.	4dd\	te	4dd\)	.
.	.	.	8a/	.	.	.	.	.	.
!	!LO:LB:g=original	!	!	!	!	!	!	!	!
=8	=8	=8	=8	=8	=8	=8	=8	=8	=8
!	!	!	!LO:TX:t=P:/right:problem	!	!	!	!	!	!
4G\	4g\	.	8b-\	8ff\L	.	8ff\L	cri-	8ff\L	pro-
.	.	.	4b-\	8ee-\J	.	8ee-\J	.	8ee-\J	-pe-
4G\	4g\	.	.	4ee-\	.	4ee-\	-mi-	4ee-\	-ra-
.	.	.	4b-\	.	.	.	.	.	.
4F\	4f\	.	.	4dd\	.	4dd\	-nu(m)	4dd\	-te
.	.	.	8a\	.	.	.	.	.	.
=9	=9	=9	=9	=9	=9	=9	=9	=9	=9
!LO:TX:t=P:problem=mixed beam	!LO:TX:t=P:problem=mixed beam	!	!	!	!	!	!	!	!
8E-\L	8e-\L	.	(8g/L	(16dd\LL	.	(16dd\LL	te	(16dd\LL	om-
.	.	.	.	16cc\)	.	16cc\	.	16cc\)	.
8E-\	8e-\	.	8e-/J)	(16ee-\	.	16ee-\	.	(16ee-\	-nes
.	.	.	.	16cc\JJ)	.	16cc\JJ)	.	16cc\JJ)	.
!	!	!	!	!	!	!LO:LB:g=original	!	!	!
8F\	8f\	.	(8e-/L	(8cc\L	.	(8cc\L	li-	(8cc\L	gen-
8F\	8f\	.	8d/)	8b-\)	.	8b-\J)	.	8b-\)	.
8FF/	8F/	.	(8d/	(8b-\	.	(8b-\L	-be-	(8b-\	.
8FF/J	8F/J	.	8c/J)	8a\J)	.	8a\J)	.	8a\J)	.
=10	=10	=10	=10	=10	=10	=10	=10	=10	=10
!	!	!	!	!	!LO:DY:Bi:t=f&colon;	!	!	!	!
4BB-/	4B-/	.	8d/	(16b-/LL	f	4b-\	-ret	4b-\	-tes
.	.	.	.	16f/)	.	.	.	.	.
.	.	.	4f/	(16dd/	.	.	.	.	.
.	.	.	.	16f/JJ)	.	.	.	.	.
4BB-/	4B-/	.	.	(16b-/LL	.	4r	.	4r	.
.	.	.	.	16f/)	.	.	.	.	.
.	.	.	4f/	(16dd/	.	.	.	.	.
.	.	.	.	16f/JJ)	.	.	.	.	.
8B-\L	8B-/L	.	.	(16b-/LL	.	8r	.	8r	.
.	.	.	.	16f/)	.	.	.	.	.
!	!	!LO:DY:Bi:t=f&colon;	!	!	!LO:DY:Bi:t=p&colon;	!	!	!	!
8d\J	8d/J	f	8f/	(16ff/	p	8ff\	hanc	8ff\	pro-
.	.	.	.	16f/JJ)	.	.	.	.	.
!	!	!	!	!LO:LB:g=original	!	!	!	!	!
=11	=11	=11	=11	=11	=11	=11	=11	=11	=11
8c|\L	8c|/L	.	8f/	(16ee-/LL	.	(8ee-\L	ap-	8ee-\L	-pe-
.	.	.	.	16f/)	.	.	.	.	.
8B-|\	8B-|/	.	4f/	(16dd/	.	8dd\J)	.	8dd\	.
.	.	.	.	16f/JJ)	.	.	.	.	.
8A|\	8A|/	.	.	(16cc/LL	.	(8cc\L	-pel-	(8cc\	-ra-
.	.	.	.	16f/)	.	.	.	.	.
8G|\	8G|/	.	4f/	(16b-/	.	8b-\	.	8b-\)	.
.	.	.	.	16f/JJ)	.	.	.	.	.
8F|\	8F|/	.	.	(16a/LL	.	8a\	.	(8a\	.
.	.	.	.	16f/)	.	.	.	.	.
8A|\J	8c|/J	.	8f/	(16ee-/	.	8ee-\J)	.	8ee-\J)	.
.	.	.	.	16f/JJ)	.	.	.	.	.
!	!	!	!LO:LB:g=original	!	!	!	!	!	!
=12	=12	=12	=12	=12	=12	=12	=12	=12	=12
!	!	!LO:DY:Bi:t=f&colon;	!	!	!LO:DY:Bi:t=f&colon;	!	!	!	!
4B-\	4B-/	f	8f/	(16dd/LL	f	4dd\	-la	4dd\	-te
.	.	.	.	16f/)	.	.	.	.	.
.	.	.	4f/	(16b-/	.	.	.	.	.
.	.	.	.	16f/JJ)	.	.	.	.	.
4BB-/	4B-/	.	.	(16dd/LL	.	4r	.	4r	.
.	.	.	.	16f/)	.	.	.	.	.
.	.	.	4f/	(16b-/	.	.	.	.	.
.	.	.	.	16f/JJ)	.	.	.	.	.
!	!	!	!	!	!	!	!	!LO:LB:g=original	!
8B-\L	8B-/L	.	.	(16dd/LL	.	8r	.	8r	.
.	.	.	.	16f/)	.	.	.	.	.
!	!	!	!	!	!LO:DY:Bi:t=p&colon;	!	!	!	!
8d\J	8d/J	.	8f/	(16ff/	p	8ff\	ne	8ff\	om-
.	.	.	.	16f/JJ)	.	.	.	.	.
!LO:LB:g=original	!	!	!	!	!	!	!	!	!
=13	=13	=13	=13	=13	=13	=13	=13	=13	=13
8c|\L	8c/L	.	8f/	(16ee-/LL	.	(8ee-\L	pro-	(8ee-\L	.
.	.	.	.	16f/)	.	.	.	.	.
8B-|\	8B-/	.	4f/	(16dd/	.	8dd\J)	.	8dd\)	.
.	.	.	.	16f/JJ)	.	.	.	.	.
8A|\	8A/	.	.	(16cc/LL	.	8cc\	-cel-	(8cc\	-nes
.	.	.	.	16f/)	.	.	.	.	.
8G|\	8G/	.	4f/	(16b-/	.	8b-\	-la	8b-\)	.
.	.	.	.	16f/JJ)	.	.	.	.	.
8F|\	8F/	.	.	(16a/LL	.	8a\	vi-	(8a\	gen-
.	.	.	.	16f/)	.	.	.	.	.
!	!	!	!	!	!	!	!	!LO:N:vis=8.	!
8A|\J	8c/J	.	8f/	(16ee-/	.	8ee-\	-ti-	8ee-\J)	.
.	.	.	.	16f/JJ)	.	.	.	.	.
=14	=14	=14	=14	=14	=14	=14	=14	=14	=14
!	!	!	!LO:TX:t=P:problem=mixed beam	!	!	!	!	!	!
4B-\	4B-/	.	8.f/L	8.dd\L	.	4dd\	-o-	4dd\	-tes
.	.	.	16dd\Jk	16ff\Jk	.	.	.	.	.
4D\	4d\	.	8.dd\L	8.ff\L	.	4dd\	-rum	4dd\	om-
.	.	.	16dd\Jk	16bb-\Jk	.	.	.	.	.
!	!LO:N:vis=16	!	!	!LO:N:vis=8	!	!	!	!	!
4En\	8r	.	8.dd\L	(8.bb-\L	.	8ff\	su-	8ff\L	.
!	!LO:N:vis=4	!	!	!	!	!	!	!	!
!	!LO:SIC:v:s=8en\	!	!	!	!	!	!	!	!
.	8e-\	.	.	.	.	8dd\	-pe-	8dd\J	-nes
.	.	.	16b-\Jk	16dd\Jk)	.	.	.	.	.
!	!LO:LB:g=original	!	!	!	!	!LO:LB;g=original	!	!	!
=15	=15	=15	=15	=15	=15	=15	=15	=15	=15
.	.	.	8qqcc/	8qqee-/	.	.	.	8qqee-/	.
4F\	4f\	.	4b-\	4dd\	.	(8dd\L	-ret	4dd\	gen-
.	.	.	.	.	.	16cc\L	.	.	.
.	.	.	.	.	.	16dd\JJ)	.	.	.
.	.	.	.	.	.	.	.	8qqcc/L	.
!LO:TX:t=P:problem=fermata nad nutą i pauzą	!	!	!	!	!	!	!	!	!
.	.	.	.	.	.	8qqdd/	.	8qqdd/J	.
4FF;/	4F/	.	4a\	4cc\	.	2cc\	.	2cc\	-tes
4r	4r;	.	4r	4r	.	.	.	.	.
!	!	!	!	!LO:TX:b:t=<...> allo	!	!	!	!	!
==	==	==	==	=	==	==	==	==	==
*-	*-	*-	*-	*-	*-	*-	*-	*-	*-
!!!system-decoration: [(s1,s2)][(s3,s4,s5,s6)]
!!!RDF**kern: | = vertical stroke
!!!ENC: Katarzyna Serwa
!!!END: 2022-01-27
!!!ENC: Andrzej Kubiczek
!!!END: 2020-10-06
